packages/icons/src/assets/thumbs-down.svg

<svg width="16" height="16" viewBox="0 0 16 16" fill="none" xmlns="http://www.w3.org/2000/svg">
<path d="M6.85254 14.6237C6.28523 14.6236 5.73882 14.4025 5.33398 14.0056C4.92868 13.6081 4.69824 13.0662 4.69824 12.4987V9.37567L3.0293 9.37567C2.462 9.37564 1.91562 9.15436 1.51074 8.75751C1.10539 8.36007 0.875 7.81816 0.875 7.25067C0.875005 7.20874 0.879315 7.16676 0.887695 7.12567L1.65234 3.37665C1.65372 3.36992 1.65563 3.36282 1.65723 3.35614C1.78843 2.80771 2.04514 2.29974 2.42188 1.93036C2.79179 1.5677 3.27166 1.35122 3.79395 1.3786V1.37762L9.14746 1.37762C9.83209 1.37772 10.493 1.61531 11.0166 2.04559C11.0756 1.94837 11.145 1.85699 11.2275 1.77606C11.4891 1.51964 11.8414 1.37762 12.2061 1.37762H13.7354C14.1 1.37764 14.4524 1.51966 14.7139 1.77606C14.9755 2.03275 15.1249 2.38334 15.125 2.75165L15.125 8.00067C15.125 8.36925 14.9758 8.72044 14.7139 8.97723C14.4524 9.23364 14.1 9.37566 13.7354 9.37567H11.4414C10.792 9.37567 10.1713 9.62829 9.71582 10.0749C9.26071 10.5211 9.00781 11.1241 9.00781 11.7497V12.4987C9.00781 13.0661 8.77732 13.6081 8.37207 14.0056C7.96714 14.4026 7.41999 14.6237 6.85254 14.6237ZM6.85254 13.3737C7.09634 13.3737 7.32836 13.2784 7.49707 13.113C7.6652 12.948 7.75781 12.7265 7.75781 12.4987V11.7497C7.75781 10.7845 8.14865 9.86097 8.84082 9.18231C9.3827 8.65106 10.0745 8.30505 10.8164 8.17938V4.25165L10.8086 4.09247C10.7713 3.72356 10.6048 3.37453 10.332 3.10712C10.02 2.80119 9.59392 2.62773 9.14746 2.62762L3.79395 2.62762L3.74219 2.62469C3.6226 2.61472 3.4664 2.65673 3.29688 2.82294C3.12205 2.99435 2.96184 3.27591 2.87305 3.64716L2.12793 7.30243C2.14078 7.51184 2.23023 7.71245 2.38574 7.86493C2.55441 8.03021 2.78562 8.12564 3.0293 8.12567L5.32324 8.12567C5.66842 8.12567 5.94824 8.40549 5.94824 8.75067V12.4987C5.94824 12.7266 6.0408 12.948 6.20898 13.113C6.3776 13.2783 6.60889 13.3736 6.85254 13.3737ZM13.7354 8.12567C13.7763 8.12566 13.8136 8.10945 13.8389 8.08466C13.8636 8.06032 13.875 8.02966 13.875 8.00067L13.875 2.75165C13.8749 2.72288 13.8633 2.69283 13.8389 2.66864C13.8136 2.64385 13.7763 2.62764 13.7354 2.62762H12.2061C12.1651 2.62762 12.1278 2.64384 12.1025 2.66864C12.078 2.69285 12.0665 2.72283 12.0664 2.75165L12.0664 8.12567H13.7354Z" fill="#0A0A0A"/>
</svg>

<svg xmlns="http://www.w3.org/2000/svg" width="16" height="16" viewBox="0 0 16 16"><path d="M6.853 14.624a2.17 2.17 0 0 1-1.519-.618 2.1 2.1 0 0 1-.636-1.507V9.376H3.03a2.17 2.17 0 0 1-1.518-.618A2.1 2.1 0 0 1 .875 7.25q0-.063.013-.125l.764-3.75.005-.02c.131-.548.388-1.056.765-1.426.37-.362.85-.579 1.372-.551v-.001h5.353c.685 0 1.346.237 1.87.668a1.37 1.37 0 0 1 1.19-.668h1.528a1.4 1.4 0 0 1 .979.398c.261.257.41.607.411.976V8c0 .368-.15.72-.411.976a1.4 1.4 0 0 1-.979.399h-2.294c-.649 0-1.27.252-1.725.699a2.35 2.35 0 0 0-.708 1.675v.749c0 .567-.23 1.11-.636 1.507a2.17 2.17 0 0 1-1.52.618m0-1.25a.92.92 0 0 0 .644-.261.86.86 0 0 0 .26-.614v-.75c0-.965.392-1.888 1.084-2.567a3.7 3.7 0 0 1 1.975-1.003V4.252l-.007-.16a1.6 1.6 0 0 0-.477-.985 1.7 1.7 0 0 0-1.185-.48H3.794l-.052-.002c-.12-.01-.276.032-.445.198-.175.171-.335.453-.424.824l-.745 3.655a.86.86 0 0 0 .258.563c.168.165.4.26.643.26h2.294c.345 0 .625.28.625.626v3.748c0 .228.093.449.261.614.169.165.4.26.644.26m6.882-5.248a.15.15 0 0 0 .104-.041.12.12 0 0 0 .036-.084V2.75a.12.12 0 0 0-.036-.082.15.15 0 0 0-.104-.041h-1.529a.15.15 0 0 0-.104.04.12.12 0 0 0-.036.084v5.374z"/></svg>
